src/assets/icons/Calendar_icon.svg

<svg width="13" height="14" viewBox="0 0 13 14" fill="none" xmlns="http://www.w3.org/2000/svg">
<path fill-rule="evenodd" clip-rule="evenodd" d="M9.3957 0.538032L9.39639 1.06277C11.3263 1.21389 12.6011 2.52784 12.6032 4.54283L12.6108 10.4409C12.6136 12.6378 11.2322 13.9895 9.01801 13.993L3.60942 14C1.40905 14.0028 0.0103805 12.6189 0.00761363 10.4157L4.65883e-06 4.5869C-0.00276224 2.55862 1.22712 1.24818 3.15703 1.07117L3.15634 0.546428C3.15565 0.238582 3.38392 0.00699808 3.68828 0.00699808C3.99264 0.00629843 4.22091 0.237183 4.2216 0.545029L4.22229 1.03478L8.33113 1.02919L8.33044 0.539431C8.32975 0.231586 8.55802 0.000701235 8.86238 1.58584e-06C9.15982 -0.000698064 9.395 0.230186 9.3957 0.538032ZM1.0632 4.80582L11.5359 4.79183V4.54695C11.5062 3.04271 10.7508 2.2535 9.39502 2.13596L9.39571 2.67469C9.39571 2.97554 9.16121 3.21412 8.86377 3.21412C8.55941 3.21482 8.33045 2.97694 8.33045 2.67609L8.32976 2.10937L4.22092 2.11497L4.22161 2.68099C4.22161 2.98254 3.99403 3.22042 3.68967 3.22042C3.38531 3.22112 3.15635 2.98394 3.15635 2.68239L3.15566 2.14366C1.8068 2.27869 1.06043 3.07069 1.0625 4.58823L1.0632 4.80582ZM8.57422 7.98614V7.99384C8.58113 8.31568 8.84376 8.55986 9.16237 8.55286C9.47338 8.54516 9.7215 8.2786 9.71458 7.95676C9.70007 7.64891 9.45057 7.39774 9.14025 7.39844C8.82234 7.40543 8.57353 7.6643 8.57422 7.98614ZM9.14547 11.1276C8.82755 11.1206 8.57114 10.8554 8.57045 10.5336C8.56354 10.2118 8.81857 9.94519 9.13649 9.9375H9.1434C9.46823 9.9375 9.73155 10.2027 9.73155 10.5315C9.73224 10.8603 9.46961 11.1269 9.14547 11.1276ZM5.72254 7.99693C5.73636 8.31877 5.99968 8.56994 6.3176 8.55595C6.62861 8.54126 6.87672 8.27539 6.8629 7.95355C6.8553 7.63871 6.59958 7.39383 6.28857 7.39453C5.97065 7.40852 5.72185 7.67509 5.72254 7.99693ZM6.32151 11.095C6.00359 11.109 5.74096 10.8578 5.72644 10.536C5.72644 10.2142 5.97456 9.94829 6.29248 9.93359C6.60349 9.93289 6.8599 10.1778 6.86681 10.4919C6.88132 10.8145 6.63252 11.0803 6.32151 11.095ZM2.8711 8.02427C2.88492 8.34611 3.14824 8.59799 3.46616 8.58329C3.77717 8.5693 4.02528 8.30273 4.01077 7.9809C4.00386 7.66605 3.74814 7.42118 3.43644 7.42188C3.11852 7.43587 2.8704 7.70243 2.8711 8.02427ZM3.47397 11.0989C3.15605 11.1136 2.89342 10.8617 2.87891 10.5399C2.87822 10.2181 3.12702 9.95149 3.44494 9.9375C3.75595 9.9368 4.01236 10.1817 4.01927 10.4965C4.03378 10.8184 3.78567 11.0849 3.47397 11.0989Z" fill="#8496E7"/>
</svg>

<svg xmlns="http://www.w3.org/2000/svg" width="13" height="14" fill="none"><path fill="#8496E7" fill-rule="evenodd" d="M9.396.538v.525c1.93.15 3.205 1.465 3.207 3.48l.008 5.898c.003 2.197-1.379 3.548-3.593 3.552L3.609 14c-2.2.003-3.599-1.381-3.601-3.584L0 4.586C-.003 2.56 1.227 1.249 3.157 1.072V.546c-.001-.307.227-.539.531-.539s.533.23.534.538v.49l4.11-.006L8.33.54c0-.307.228-.538.532-.539.298 0 .533.23.534.538M1.063 4.806l10.473-.014v-.245c-.03-1.504-.785-2.293-2.141-2.411v.539c0 .3-.234.54-.531.54a.527.527 0 0 1-.534-.539V2.11l-4.11.006.002.566c0 .302-.228.54-.532.54a.526.526 0 0 1-.534-.539v-.538c-1.35.135-2.096.927-2.093 2.444zm7.511 3.18v.008a.57.57 0 1 0 1.14-.037.58.58 0 0 0-.574-.559.58.58 0 0 0-.566.588m.571 3.142a.594.594 0 0 1-.575-.594.583.583 0 0 1 .566-.597h.007a.59.59 0 0 1 .589.595.59.59 0 0 1-.587.596M5.723 7.997a.575.575 0 0 0 .595.559.576.576 0 0 0 .545-.602.57.57 0 0 0-.574-.56.597.597 0 0 0-.566.603m.599 3.098a.576.576 0 0 1-.596-.559c0-.322.249-.588.566-.602a.57.57 0 0 1 .575.558.576.576 0 0 1-.545.603m-3.45-3.07a.575.575 0 0 0 .594.558.575.575 0 0 0 .545-.602.57.57 0 0 0-.575-.56.597.597 0 0 0-.565.603m.602 3.074a.575.575 0 0 1-.595-.56c0-.32.248-.588.566-.601a.57.57 0 0 1 .574.558.575.575 0 0 1-.545.603" clip-rule="evenodd"/></svg>
